X:1302
T:Miss Cahoon's Reel
P:Miss Cahoon's Reel
C:Traditional
R:Jig (8x48) ABABAB
B:RSCDS 13-2
Z:Anselm Lingnau <anselm@strathspey.org>
M:6/8
L:1/8
K:F
C|"F"F2G A2B|cfd cAF|"Gm"B>AB "F"cAF|"C7"E>FG G2F|
  "F"FCF AFA|cf"Bb"d "F"cAF|"Gm"B>AB "C7"GcB|"F"AFF F2||
c|"Dm"f>ef "C"gec|"Bb"dfd "F/A"cAF|"Gm"B/c/dB "F"A/B/cA|"C"E>FG G2 c|
  "Dm"faf "C"ece|"Bb"dfd "F/A"cAF|"Gm"B>AB "C7"GcB|"F"AFF F2|]
